X:1
T: Jack broke da prison door
C:
R:Reel
Q: 232
K:G
M:4/4
L:1/8
|:G2 BG Bd BG|AB AB dB AB|G2 BG Bd BG|AB AG E2 D2|
G2 BG Bd BG|AB AB dB AB|G2 BG Bd BG|AB AG E2 D2|
g2 gd ed Bd|g2 gd ea af|g2 gd ed BG|AB AG E2 D2|
g2 gd ed Bd|g2 gd ea af|g2 gd ed BG|AB AG E2 D2:|
